Newaita-dark/actions/22/align-horizontal-right.svg

<svg height="22" viewBox="0 0 22 22" width="22" xmlns="http://www.w3.org/2000/svg"><g fill="#e0e0e0"><path d="m18.648438 1.992188c-.253907 0-.457032.203124-.457032.453124v17.28125c0 .253907.203125.457032.457032.457032.25 0 .453124-.203125.453124-.457032v-17.28125c0-.25-.203124-.453124-.453124-.453124zm0 0"/><path d="m15.464844 3.355469c1.007812 0 1.816406.8125 1.816406 1.820312v3.636719c0 1.007812-.808594 1.820312-1.816406 1.820312h-10.917969c-1.007813 0-1.816406-.8125-1.816406-1.820312v-3.636719c0-1.007812.808593-1.820312 1.816406-1.820312zm-.457032 1.820312h-10.003906c-.253906 0-.457031.203125-.457031.453125v2.730469c0 .25.203125.453125.457031.453125h10.003906c.253907 0 .457032-.203125.457032-.453125v-2.730469c0-.25-.203125-.453125-.457032-.453125zm0 0"/><path d="m15.464844 12.453125c1.007812 0 1.816406.808594 1.816406 1.816406v2.730469c0 1.007812-.808594 1.820312-1.816406 1.820312h-5.460938c-1.007812 0-1.816406-.8125-1.816406-1.820312v-2.730469c0-1.007812.808594-1.816406 1.816406-1.816406zm-.457032 1.816406h-4.546874c-.253907 0-.457032.203125-.457032.457031v1.816407c0 .253906.203125.457031.457032.457031h4.546874c.253907 0 .457032-.203125.457032-.457031v-1.816407c0-.253906-.203125-.457031-.457032-.457031zm0 0"/></g></svg>

<?xml version="1.0" encoding="UTF-8"?>
<svg xmlns="http://www.w3.org/2000/svg" xmlns:xlink="http://www.w3.org/1999/xlink" width="22px" height="22px" viewBox="0 0 22 22" version="1.1">
<g id="surface1">
<path style=" stroke:none;fill-rule:nonzero;fill:rgb(87.843138%,87.843138%,87.843138%);fill-opacity:1;" d="M 18.648438 1.992188 C 18.394531 1.992188 18.191406 2.195312 18.191406 2.445312 L 18.191406 19.726562 C 18.191406 19.980469 18.394531 20.183594 18.648438 20.183594 C 18.898438 20.183594 19.101562 19.980469 19.101562 19.726562 L 19.101562 2.445312 C 19.101562 2.195312 18.898438 1.992188 18.648438 1.992188 Z M 18.648438 1.992188 "/>
<path style=" stroke:none;fill-rule:nonzero;fill:rgb(87.843138%,87.843138%,87.843138%);fill-opacity:1;" d="M 15.464844 3.355469 C 16.472656 3.355469 17.28125 4.167969 17.28125 5.175781 L 17.28125 8.8125 C 17.28125 9.820312 16.472656 10.632812 15.464844 10.632812 L 4.546875 10.632812 C 3.539062 10.632812 2.730469 9.820312 2.730469 8.8125 L 2.730469 5.175781 C 2.730469 4.167969 3.539062 3.355469 4.546875 3.355469 Z M 15.007812 5.175781 L 5.003906 5.175781 C 4.75 5.175781 4.546875 5.378906 4.546875 5.628906 L 4.546875 8.359375 C 4.546875 8.609375 4.75 8.8125 5.003906 8.8125 L 15.007812 8.8125 C 15.261719 8.8125 15.464844 8.609375 15.464844 8.359375 L 15.464844 5.628906 C 15.464844 5.378906 15.261719 5.175781 15.007812 5.175781 Z M 15.007812 5.175781 "/>
<path style=" stroke:none;fill-rule:nonzero;fill:rgb(87.843138%,87.843138%,87.843138%);fill-opacity:1;" d="M 15.464844 12.453125 C 16.472656 12.453125 17.28125 13.261719 17.28125 14.269531 L 17.28125 17 C 17.28125 18.007812 16.472656 18.820312 15.464844 18.820312 L 10.003906 18.820312 C 8.996094 18.820312 8.1875 18.007812 8.1875 17 L 8.1875 14.269531 C 8.1875 13.261719 8.996094 12.453125 10.003906 12.453125 Z M 15.007812 14.269531 L 10.460938 14.269531 C 10.207031 14.269531 10.003906 14.472656 10.003906 14.726562 L 10.003906 16.542969 C 10.003906 16.796875 10.207031 17 10.460938 17 L 15.007812 17 C 15.261719 17 15.464844 16.796875 15.464844 16.542969 L 15.464844 14.726562 C 15.464844 14.472656 15.261719 14.269531 15.007812 14.269531 Z M 15.007812 14.269531 "/>
</g>
</svg>
